X:1
T:Etude No. 6
T:Wohlfahrt Op. 45, no 3
L:1/8
M:4/4
K:G
V:1 treble nm="Violin" snm="Vln."
V:1
 edcB ABcA | dcBA GABG | cBAG FDEF | GBdg bagf | edcB ABcA | dcBA GABG | FEDC B,DGB | cdef gBcd | %8
 egfg agfe | dBGB dgfg | egfg agfe | dBGB dBed | cAdc BGcB | AGFE Dded | cAdc BGcB | AGFE DCB,A, | %16
 G,A,B,C DEFG | ABcd eABc | edcB cdef | agdB GBcd | edcB ABcA | dcBA GABG | cBAG FDEF | GBdg bBce | %24
 ddcB ABcA | dcBA GABG | FEDC B,DGB | cdef gbag | fedc BGFE | DCB,A, G,4 |] %30

